icons/terraform-logo.svg

<?xml version="1.0" encoding="UTF-8"?>
<svg width="512px" height="123px" viewBox="0 0 512 123" version="1.1" xmlns="http://www.w3.org/2000/svg" xmlns:xlink="http://www.w3.org/1999/xlink" preserveAspectRatio="xMidYMid">
    <g>
        <path d="M207.784637,45.398496 C223.060811,45.398496 226.480544,54.3061847 226.480544,64.5858622 L226.480544,74.8245848 L199.859865,74.8245848 L199.859865,77.2818782 C199.962252,82.974608 202.009997,85.227127 209.259013,85.227127 C214.203709,85.2022612 219.117295,84.4431398 223.838954,82.974608 L225.702401,91.9846839 C220.081384,94.0110295 214.148777,95.0367608 208.173708,95.0156743 C193.204696,95.0156743 188.003424,88.0734918 188.003424,76.5856451 L188.003424,63.9920163 C188.003424,53.9171132 192.508462,45.398496 207.784637,45.398496 Z M308.165073,45.3780186 C323.134085,45.3780186 327.557214,50.6611994 327.557214,62.59955 L327.516259,94.0324284 L317.72804,94.0324284 L316.84751,90.7969921 C312.624502,93.5454454 307.695268,95.0107009 302.65664,95.0153458 C293.953726,95.0153458 290.226831,89.0359318 290.226831,80.8244762 C290.226831,71.1386447 294.445185,67.4117496 304.131016,67.4117496 L315.577908,67.4117496 L315.577908,62.415253 C315.577908,57.1320721 314.103532,55.2686246 306.465445,55.2686246 C302.021839,55.3177705 297.598711,55.8133247 293.257493,56.7430007 L291.783117,47.6305376 C297.11961,46.1560267 302.628656,45.3985329 308.165073,45.3780186 Z M387.515173,45.3780186 C403.856174,45.3780186 408.258896,54.3880945 408.258896,64.1763133 L408.258896,76.2170511 C408.279303,86.0052699 403.856174,95.0153458 387.515173,95.0153458 C371.133217,95.0153458 366.771521,86.0052699 366.771521,76.2170511 L366.771521,64.1763133 C366.771521,54.3880945 371.174172,45.3780186 387.515173,45.3780186 Z M198.016895,28.8322429 L198.016895,39.7057663 L179.791969,39.7057663 L179.791969,94.0324284 L167.505502,94.0324284 L167.464547,39.7057663 L149.260098,39.7057663 L149.260098,28.8322429 L198.016895,28.8322429 Z M355.222242,24.9208298 C358.681752,24.9092405 362.12661,25.3708515 365.460965,26.2930396 L364.21184,35.4874125 C361.956473,35.0022967 359.65862,34.7416447 357.351896,34.7092696 C352.662561,34.7092696 351.966328,36.7570142 351.966328,40.381522 L351.966328,46.360936 L364.109453,46.360936 L363.433698,55.8624705 L351.986806,55.8624705 L351.986806,94.0324284 L340.048455,94.0324284 L340.048455,55.8624705 L332.410368,55.8624705 L332.410368,46.360936 L340.048455,46.360936 L340.048455,39.7057663 C340.048455,29.8151602 344.65588,24.9208298 355.222242,24.9208298 Z M482.03906,50.4769024 C487.996676,47.4248385 494.539621,45.6861051 501.226426,45.3780186 C509.151198,45.3780186 511.997563,50.9478837 511.997563,59.4665009 L511.997563,94.0324284 L500.059212,94.0324284 L500.059212,60.7565799 C500.059212,58.2173767 498.973907,56.9477751 496.250407,56.9477751 C491.866852,57.4311118 487.632894,58.8261556 483.820598,61.0432642 L483.820598,94.0324284 L471.800338,94.0324284 L471.800338,60.7565799 C471.800338,58.2173767 470.715033,56.9477751 467.991533,56.9477751 C463.615503,57.4679022 459.391006,58.8603685 455.561724,61.0432642 L455.561724,94.0324284 L443.623373,94.0324284 L443.623373,46.360936 L452.735836,46.360936 L453.903051,50.456425 C459.853622,47.4461906 466.368922,45.716218 473.028984,45.3780186 C476.802977,45.021711 480.400865,47.0571691 482.03906,50.4769024 Z M257.176234,45.3780186 L258.404881,56.3539292 C254.007479,58.3384878 249.769727,60.6593246 245.729343,63.2957831 L245.729343,94.011951 L233.790992,94.011951 L233.790992,46.360936 L243.865895,46.360936 L244.644038,51.6441168 C248.528557,49.0148507 252.74211,46.9080738 257.176234,45.3780186 Z M286.377071,45.3780186 L287.564763,56.3539292 C283.181199,58.3399542 278.95717,60.6607739 274.930179,63.2957831 L274.930179,94.011951 L262.991829,94.011951 L262.991829,46.360936 L273.066732,46.360936 L273.844875,51.6441168 C277.729393,49.0148507 281.942947,46.9080738 286.377071,45.3780186 Z M437.807779,45.3780186 L438.99547,56.3539292 C434.611906,58.3399542 430.387878,60.6607739 426.360887,63.2957831 L426.360887,94.011951 L414.422536,94.011951 L414.422536,46.360936 L424.497439,46.360936 L425.275582,51.6441168 C429.15986,49.0144397 433.37347,46.907635 437.807779,45.3780186 Z M315.577908,76.0122766 L306.772607,76.0122766 C302.861415,76.0122766 301.77611,77.0975812 301.77611,80.7016116 C301.77611,84.3056419 302.861415,85.4933337 306.567832,85.4933337 C309.730055,85.4450258 312.829006,84.5998575 315.577908,83.0360403 L315.577908,76.0122766 Z M387.515173,55.5553089 C381.146688,55.5553089 378.709872,58.4016737 378.709872,63.7462869 L378.709872,76.5651676 C378.709872,81.9507357 381.167165,84.7561457 387.515173,84.7561457 C393.863181,84.7561457 396.320475,81.9097808 396.320475,76.5651676 L396.320475,63.7872418 C396.320475,58.4016737 393.883659,55.5553089 387.515173,55.5553089 Z M207.887024,55.1662374 C202.009997,55.1662374 199.962252,58.2992865 199.962252,62.8043245 L199.962252,65.220663 L215.136039,65.220663 L215.136039,62.8043245 C215.136039,58.2992865 213.764051,55.1662374 207.887024,55.1662374 Z" fill="#000000"></path>
        <g>
            <polygon fill="#4040B2" points="74.5379006 79.8210814 108.120911 60.4494183 108.120911 21.6446596 74.5379006 41.0572776"></polygon>
            <path d="M37.2689503,21.6446596 L70.8519604,41.0572776 L70.8519604,79.8210814 L37.2689503,60.4289408 M0,38.7842812 L33.5830101,58.1764218 L33.5830101,19.3921406 L0,0 M37.2689503,103.472531 L70.8519604,122.864671 L70.8519604,84.08039 L37.2689503,64.6882494" fill="#5C4EE5"></path>
        </g>
    </g>
</svg>

<svg xmlns="http://www.w3.org/2000/svg" viewBox="0 0 511.998 122.865">
  <path d="M207.785 45.398c15.276 0 18.696 8.908 18.696 19.188v10.239H199.86v2.457c.102 5.693 2.15 7.945 9.399 7.945a49.938 49.938 0 0 0 14.58-2.252l1.863 9.01a51.155 51.155 0 0 1-17.528 3.03c-14.97 0-20.17-6.942-20.17-18.43V63.993c0-10.075 4.504-18.594 19.78-18.594zm100.38-.02c14.97 0 19.392 5.283 19.392 17.222l-.04 31.432h-9.789l-.88-3.235a26.06 26.06 0 0 1-14.191 4.218c-8.703 0-12.43-5.98-12.43-14.19 0-9.686 4.218-13.413 13.904-13.413h11.447v-4.997c0-5.283-1.475-7.146-9.113-7.146-4.443.049-8.866.544-13.208 1.474l-1.474-9.112a62.378 62.378 0 0 1 16.382-2.253zm79.35 0c16.341 0 20.744 9.01 20.744 18.798v12.041c.02 9.788-4.403 18.798-20.744 18.798-16.382 0-20.743-9.01-20.743-18.798v-12.04c0-9.789 4.402-18.799 20.743-18.799zM198.017 28.832v10.874h-18.225v54.326h-12.286l-.041-54.326H149.26V28.832zm157.205-3.911c3.46-.012 6.905.45 10.239 1.372l-1.25 9.194a34.955 34.955 0 0 0-6.86-.778c-4.688 0-5.385 2.048-5.385 5.673v5.979h12.143l-.675 9.501h-11.447v38.17h-11.939v-38.17h-7.638v-9.501h7.638v-6.655c0-9.89 4.608-14.785 15.174-14.785zM482.04 50.477a46.807 46.807 0 0 1 19.187-5.099c7.925 0 10.772 5.57 10.772 14.089v34.565h-11.939V60.757c0-2.54-1.085-3.81-3.809-3.81a31.617 31.617 0 0 0-12.43 4.096v32.99H471.8V60.756c0-2.54-1.085-3.81-3.808-3.81-4.377.52-8.601 1.913-12.43 4.096v32.99h-11.939V46.36h9.113l1.167 4.095a47.733 47.733 0 0 1 19.126-5.078 9.049 9.049 0 0 1 9.01 5.099zm-224.863-5.099 1.229 10.976a93.808 93.808 0 0 0-12.676 6.942v30.716h-11.938V46.361h10.075l.778 5.283a53.479 53.479 0 0 1 12.532-6.266zm29.201 0 1.188 10.976a93.69 93.69 0 0 0-12.635 6.942v30.716h-11.938V46.361h10.075l.778 5.283a53.479 53.479 0 0 1 12.532-6.266zm151.43 0 1.188 10.976a93.69 93.69 0 0 0-12.634 6.942v30.716h-11.938V46.361h10.074l.779 5.283a53.438 53.438 0 0 1 12.532-6.266zm-122.23 30.634h-8.804c-3.912 0-4.997 1.086-4.997 4.69s1.085 4.791 4.792 4.791a18.802 18.802 0 0 0 9.01-2.457zm71.938-20.457c-6.368 0-8.805 2.847-8.805 8.191v12.82c0 5.385 2.457 8.19 8.805 8.19s8.805-2.846 8.805-8.19V63.786c0-5.385-2.436-8.232-8.805-8.232zm-179.628-.389c-5.877 0-7.925 3.133-7.925 7.638v2.417h15.174v-2.417c0-4.505-1.372-7.638-7.249-7.638z"/>
  <path fill="#4040b2" d="M108.12 21.645 74.539 41.057v38.764L108.12 60.45z"/>
  <path fill="#5c4ee5" d="m37.269 21.645 33.583 19.412v38.764L37.269 60.43M0 38.784l33.583 19.392V19.392L0 0m37.269 103.473 33.583 19.392V84.08L37.269 64.688"/>
</svg>
